X:4165
T:Paddy Keenan's
D:Garva
M:6/8
O:Ireland
R:Jig
Z:Richard Robinson 
%%TUNEURL: http://www.leeds.ac.uk/music/Info/RRTuneBk/gettune/00000a56.html
%%ID:00000a56
K:E min
z3|E2E G2B|E2E G2B|ABA F2A|D2E FED|\
E2E G2B|E2E G2A|
BAG AGF|GFE FED|\
E2E G2B|E2E G2B|ABA F2A|D2E FED|
E2E F2F|G2G A2A|B2A G2F|E3::\
g2f|\
e2B g2f|e2B f2e|
d2A f2e|d2A g2f|\
e2B g2f|e2B B2A|BAG AGF|GFE g2f|
e2B g2f|e2B f2e|d2B A2F|D2E FED|\
E2E F2F|G2G A2A|B2A G2F |E3 :|
